packages/foundations/assets/icons/functional/images/transportation/bus_28_inverted.svg

<svg width="28" height="28" viewBox="0 0 28 28" fill="none" xmlns="http://www.w3.org/2000/svg">
<g clip-path="url(#clip0_2214_6684)">
<path fill-rule="evenodd" clip-rule="evenodd" d="M8.38717 2.69139H19.6131C20.6423 2.70587 21.19 2.82457 21.758 3.12837C22.3154 3.42646 22.7573 3.86835 23.0554 4.42574C23.3592 4.9938 23.4779 5.54147 23.4924 6.57062L23.4939 21.0011C23.4939 21.6467 23.4262 21.9974 23.2307 22.3629C23.1087 22.591 22.9469 22.7884 22.7514 22.9492L22.7502 24.4336C22.7502 24.9169 22.3584 25.3086 21.8752 25.3086H20.1252C19.6419 25.3086 19.2502 24.9169 19.2502 24.4336L19.25 23.4274H8.74998L8.75015 24.4336C8.75015 24.9169 8.3584 25.3086 7.87515 25.3086H6.12515C5.6419 25.3086 5.25015 24.9169 5.25015 24.4336L5.24921 22.9494C5.05356 22.7887 4.89165 22.5911 4.76961 22.3629C4.59366 22.0339 4.52122 21.717 4.50849 21.1862L4.50794 6.57062C4.52241 5.54147 4.64111 4.9938 4.94491 4.42574C5.24301 3.86835 5.6849 3.42646 6.24229 3.12837C6.81035 2.82457 7.35801 2.70587 8.38717 2.69139ZM7.3064 18.9649C6.5819 18.9649 5.9939 19.5529 5.9939 20.2774C5.9939 21.0027 6.5819 21.5899 7.3064 21.5899C8.03178 21.5899 8.6189 21.0027 8.6189 20.2774C8.6189 19.5529 8.03178 18.9649 7.3064 18.9649ZM20.6939 18.9649C19.9694 18.9649 19.3814 19.5529 19.3814 20.2774C19.3814 21.0027 19.9694 21.5899 20.6939 21.5899C21.4193 21.5899 22.0064 21.0027 22.0064 20.2774C22.0064 19.5529 21.4193 18.9649 20.6939 18.9649ZM22.0062 6.9336H5.9946L5.9939 16.5958C8.74998 17.0278 11.5779 17.2149 14.0002 17.2149C16.6686 17.2149 19.3373 17.0085 22.0065 16.5958L22.0062 6.9336ZM25.375 7.95324C25.7541 7.95324 26.1187 8.26023 26.1129 8.69699L26.1187 11.322C26.1187 11.7328 25.7857 12.0657 25.375 12.0657C24.9958 12.0657 24.637 11.7645 24.637 11.322L24.6312 8.69699C24.6312 8.28623 24.9642 7.95324 25.375 7.95324ZM2.62498 7.95324C3.00414 7.95324 3.36873 8.24849 3.36873 8.69699V11.322C3.36873 11.7328 3.03574 12.0657 2.62498 12.0657C2.24581 12.0657 1.88123 11.7556 1.88123 11.322V8.69699C1.88123 8.28623 2.21421 7.95324 2.62498 7.95324ZM9.62515 3.56485C9.18497 3.57065 8.8814 3.92944 8.8814 4.3086C8.8814 4.68777 9.1803 5.05235 9.62515 5.05235L18.3859 5.04656C18.8062 5.05235 19.1189 4.68777 19.1189 4.3086C19.1189 3.92944 18.8217 3.56485 18.3859 3.57065L9.62515 3.56485Z" fill="#1A1C1F"/>
</g>
<defs>
<clipPath id="clip0_2214_6684">
<rect width="28" height="28" fill="white"/>
</clipPath>
</defs>
</svg>

<svg xmlns="http://www.w3.org/2000/svg" width="28" height="28" fill="none"><g clip-path="url(#a)"><path fill="#1A1C1F" fill-rule="evenodd" d="M8.387 2.691h11.226c1.03.015 1.577.134 2.145.437.557.298 1 .74 1.297 1.298.304.568.423 1.115.437 2.145L23.494 21c0 .646-.068.996-.263 1.362a1.9 1.9 0 0 1-.48.586v1.485a.875.875 0 0 1-.876.875h-1.75a.875.875 0 0 1-.875-.875v-1.007H8.75v1.007a.875.875 0 0 1-.875.875h-1.75a.875.875 0 0 1-.875-.875v-1.485a1.9 1.9 0 0 1-.48-.586c-.176-.33-.249-.646-.262-1.177V6.571c.014-1.03.133-1.577.437-2.145.298-.558.74-1 1.297-1.298.568-.303 1.116-.422 2.145-.437m-1.08 16.274a1.313 1.313 0 1 0 0 2.626 1.313 1.313 0 0 0 0-2.626m13.387 0a1.313 1.313 0 1 0 0 2.626 1.313 1.313 0 0 0 0-2.626m1.312-12.031H5.995l-.001 9.662a53 53 0 0 0 8.006.619q4.003 0 8.006-.62zm3.369 1.02c.38 0 .744.306.738.743l.006 2.625c0 .41-.333.744-.744.744a.74.74 0 0 1-.738-.744l-.006-2.625c0-.41.333-.744.744-.744m-22.75 0a.74.74 0 0 1 .744.743v2.625a.744.744 0 1 1-1.488 0V8.697c0-.41.333-.744.744-.744m7-4.39a.75.75 0 0 0-.744.745c0 .379.3.743.744.743l8.76-.005c.421.005.734-.36.734-.738 0-.38-.297-.744-.733-.738z" clip-rule="evenodd"/></g><defs><clipPath id="a"><path fill="#fff" d="M0 0h28v28H0z"/></clipPath></defs></svg>
